Numix-Light/16/status/indicator-keyboard-Am.svg

<?xml version="1.0" encoding="UTF-8" standalone="no"?>
<svg
   xmlns:dc="http://purl.org/dc/elements/1.1/"
   xmlns:cc="http://creativecommons.org/ns#"
   xmlns:rdf="http://www.w3.org/1999/02/22-rdf-syntax-ns#"
   xmlns:svg="http://www.w3.org/2000/svg"
   xmlns="http://www.w3.org/2000/svg"
   xmlns:sodipodi="http://sodipodi.sourceforge.net/DTD/sodipodi-0.dtd"
   xmlns:inkscape="http://www.inkscape.org/namespaces/inkscape"
   viewBox="0 0 16 16"
   id="svg2"
   version="1.1"
   inkscape:version="0.91 r13725"
   sodipodi:docname="indicator-keyboard-Am.svg">
  <metadata
     id="metadata13">
    <rdf:RDF>
      <cc:Work
         rdf:about="">
        <dc:format>image/svg+xml</dc:format>
        <dc:type
           rdf:resource="http://purl.org/dc/dcmitype/StillImage" />
      </cc:Work>
    </rdf:RDF>
  </metadata>
  <defs
     id="defs11" />
  <sodipodi:namedview
     pagecolor="#ffffff"
     bordercolor="#666666"
     borderopacity="1"
     objecttolerance="10"
     gridtolerance="10"
     guidetolerance="10"
     inkscape:pageopacity="0"
     inkscape:pageshadow="2"
     inkscape:window-width="640"
     inkscape:window-height="480"
     id="namedview9"
     showgrid="false"
     inkscape:zoom="14.75"
     inkscape:cx="8"
     inkscape:cy="8"
     inkscape:window-x="65"
     inkscape:window-y="24"
     inkscape:window-maximized="0"
     inkscape:current-layer="svg2" />
  <path
     style="fill:#353535;fill-opacity:1"
     d="M 1.5996094 0 C 0.71320937 2.9605947e-16 0 0.71320937 0 1.5996094 L 0 14.400391 C 2.9605947e-16 15.286791 0.71320937 16 1.5996094 16 L 14.400391 16 C 15.286791 16 16 15.286791 16 14.400391 L 16 1.5996094 C 16 0.71320937 15.286791 0 14.400391 0 L 1.5996094 0 z M 4.1582031 4.8808594 L 4.6992188 4.8808594 C 4.9212188 5.3428594 5.130125 5.8055781 5.328125 6.2675781 C 5.526125 6.7295781 5.723875 7.2127969 5.921875 7.7167969 C 6.125875 8.2147969 6.3329687 8.7445937 6.5429688 9.3085938 C 6.7529688 9.8665939 6.9825156 10.471141 7.2285156 11.119141 L 6.5527344 11.119141 C 6.4387344 10.813141 6.3305156 10.518328 6.2285156 10.236328 C 6.1265156 9.954328 6.0276406 9.6782031 5.9316406 9.4082031 L 2.8984375 9.4082031 C 2.7964375 9.6782031 2.6937969 9.954328 2.5917969 10.236328 C 2.4897969 10.518328 2.3853438 10.813141 2.2773438 11.119141 L 1.6386719 11.119141 C 1.8786719 10.471141 2.1044531 9.8665939 2.3144531 9.3085938 C 2.5244531 8.7445937 2.7277812 8.2147969 2.9257812 7.7167969 C 3.1297812 7.2127969 3.3312969 6.7295781 3.5292969 6.2675781 C 3.7272969 5.8055781 3.9362031 5.3428594 4.1582031 4.8808594 z M 4.4101562 5.5839844 C 4.1821562 6.0999844 3.9601406 6.6242031 3.7441406 7.1582031 C 3.5341406 7.6922031 3.3158906 8.2687187 3.0878906 8.8867188 L 5.7421875 8.8867188 C 5.5141875 8.2687187 5.2921719 7.6922031 5.0761719 7.1582031 C 4.8601719 6.6242031 4.6381562 6.0999844 4.4101562 5.5839844 z M 9.8515625 6.375 C 10.439563 6.375 10.866859 6.5466719 11.130859 6.8886719 C 11.160859 6.8646719 11.216781 6.8254844 11.300781 6.7714844 C 11.390781 6.7114844 11.502766 6.6517969 11.634766 6.5917969 C 11.766766 6.5317969 11.91975 6.4814531 12.09375 6.4394531 C 12.27375 6.3974531 12.4715 6.375 12.6875 6.375 C 13.0415 6.375 13.326969 6.4291094 13.542969 6.5371094 C 13.764969 6.6391094 13.934688 6.7865156 14.054688 6.9785156 C 14.174688 7.1645156 14.256828 7.3902969 14.298828 7.6542969 C 14.340828 7.9182969 14.361328 8.2055781 14.361328 8.5175781 L 14.361328 11.119141 L 13.775391 11.119141 L 13.775391 8.7070312 C 13.775391 8.4010313 13.760469 8.1360625 13.730469 7.9140625 C 13.706469 7.6860625 13.652359 7.5014219 13.568359 7.3574219 C 13.490359 7.2074219 13.376563 7.0954375 13.226562 7.0234375 C 13.076562 6.9454375 12.882578 6.90625 12.642578 6.90625 C 12.462578 6.90625 12.296484 6.9249375 12.146484 6.9609375 C 12.002484 6.9909375 11.877531 7.030125 11.769531 7.078125 C 11.661531 7.126125 11.572 7.1727031 11.5 7.2207031 C 11.434 7.2687031 11.385469 7.3060781 11.355469 7.3300781 C 11.409469 7.4860781 11.448656 7.6633281 11.472656 7.8613281 C 11.502656 8.0533281 11.517578 8.2566562 11.517578 8.4726562 L 11.517578 11.119141 L 10.931641 11.119141 L 10.931641 8.7070312 C 10.931641 8.4010313 10.916719 8.1360625 10.886719 7.9140625 C 10.862719 7.6860625 10.808609 7.5014219 10.724609 7.3574219 C 10.640609 7.2074219 10.521234 7.0954375 10.365234 7.0234375 C 10.215234 6.9454375 10.013719 6.90625 9.7617188 6.90625 C 9.4797187 6.90625 9.2409688 6.9211719 9.0429688 6.9511719 C 8.8509688 6.9811719 8.7278281 7.0092031 8.6738281 7.0332031 L 8.6738281 11.119141 L 8.0878906 11.119141 L 8.0878906 6.6269531 C 8.2618906 6.5789531 8.4876719 6.5248438 8.7636719 6.4648438 C 9.0456719 6.4048438 9.4075625 6.375 9.8515625 6.375 z "
     id="path4" />
</svg>

<svg xmlns="http://www.w3.org/2000/svg" viewBox="0 0 16 16">
 <path d="m 1.6 0 c -0.886 0 -1.6 0.713 -1.6 1.6 l 0 12.801 c 0 0.886 0.713 1.6 1.6 1.6 l 12.801 0 c 0.886 0 1.6 -0.713 1.6 -1.6 l 0 -12.801 c 0 -0.886 -0.713 -1.6 -1.6 -1.6 l -12.801 0 z m 2.559 4.881 l 0.541 0 c 0.222 0.462 0.431 0.925 0.629 1.387 c 0.198 0.462 0.396 0.945 0.594 1.449 c 0.204 0.498 0.411 1.028 0.621 1.592 c 0.21 0.558 0.44 1.163 0.686 1.811 l -0.676 0 c -0.114 -0.306 -0.222 -0.601 -0.324 -0.883 c -0.102 -0.282 -0.201 -0.558 -0.297 -0.828 l -3.033 0 c -0.102 0.27 -0.205 0.546 -0.307 0.828 c -0.102 0.282 -0.206 0.577 -0.314 0.883 l -0.639 0 c 0.24 -0.648 0.466 -1.253 0.676 -1.811 c 0.21 -0.564 0.413 -1.094 0.611 -1.592 c 0.204 -0.504 0.406 -0.987 0.604 -1.449 c 0.198 -0.462 0.407 -0.925 0.629 -1.387 z m 0.252 0.703 c -0.228 0.516 -0.45 1.04 -0.666 1.574 c -0.21 0.534 -0.428 1.111 -0.656 1.729 l 2.654 0 c -0.228 -0.618 -0.45 -1.195 -0.666 -1.729 c -0.216 -0.534 -0.438 -1.058 -0.666 -1.574 z m 5.441 0.791 c 0.588 0 1.015 0.172 1.279 0.514 c 0.03 -0.024 0.086 -0.063 0.17 -0.117 c 0.09 -0.06 0.202 -0.12 0.334 -0.18 c 0.132 -0.06 0.285 -0.11 0.459 -0.152 c 0.18 -0.042 0.378 -0.064 0.594 -0.064 c 0.354 0 0.639 0.054 0.855 0.162 c 0.222 0.102 0.392 0.249 0.512 0.441 c 0.12 0.186 0.202 0.412 0.244 0.676 c 0.042 0.264 0.063 0.551 0.063 0.863 l 0 2.602 l -0.586 0 l 0 -2.412 c 0 -0.306 -0.015 -0.571 -0.045 -0.793 c -0.024 -0.228 -0.078 -0.413 -0.162 -0.557 c -0.078 -0.15 -0.192 -0.262 -0.342 -0.334 c -0.15 -0.078 -0.344 -0.117 -0.584 -0.117 c -0.18 0 -0.346 0.019 -0.496 0.055 c -0.144 0.03 -0.269 0.069 -0.377 0.117 c -0.108 0.048 -0.198 0.095 -0.27 0.143 c -0.066 0.048 -0.115 0.085 -0.145 0.109 c 0.054 0.156 0.093 0.333 0.117 0.531 c 0.03 0.192 0.045 0.395 0.045 0.611 l 0 2.646 l -0.586 0 l 0 -2.412 c 0 -0.306 -0.015 -0.571 -0.045 -0.793 c -0.024 -0.228 -0.078 -0.413 -0.162 -0.557 c -0.084 -0.15 -0.203 -0.262 -0.359 -0.334 c -0.15 -0.078 -0.352 -0.117 -0.604 -0.117 c -0.282 0 -0.521 0.015 -0.719 0.045 c -0.192 0.03 -0.315 0.058 -0.369 0.082 l 0 4.086 l -0.586 0 l 0 -4.492 c 0.174 -0.048 0.4 -0.102 0.676 -0.162 c 0.282 -0.06 0.644 -0.09 1.088 -0.09 z" style="fill:#353535;fill-opacity:1"/>
</svg>
